X:230
T:B230-  If love's a sweet passion
S:by H. Purcell
Q:1/4=120
L:1/4
M:3/4
K:Gm
d|c3/2d/2B|cAd|B3/2A/2 (B/2G/2)|G2e/2d/2|
cc(c/4d/4e/2)|dBd|(de/2)d/2c|d2||d/2c/2|\
=Bcd|ecf|GAB|A2d|edg|(g/2f/2) (g/2f/2) (e/2d/2)|\
(e/2d/2) (c/2d/2) (c/2B/2)|B2d/2e/2|\
cc(c/4d/4e/2)|ed*d/4=e/4f/2)|f=e(e/4^f/4g/2)|\
^f3/2e/2d|g(d/2e/2)f|dB\/c/2d|B3/2A/2G|G2|]

